;FLAVOR:Marlin
;TIME:5566
;Filament used: 10.3324m
;Layer height: 0.2
;MINX:65.575
;MINY:55.575
;MINZ:0.2
;MAXX:154.425
;MAXY:164.425
;MAXZ:27
;TARGET_MACHINE.NAME:Creality Ender-3 V3 SE
;Generated with Cura_SteamEngine 5.8.1
M82 ;absolute extrusion mode
M220 S100 ;Reset Feedrate
M221 S100 ;Reset Flowrate

G28 ;Home

M420 S1; Use saved mesh leveling data

G92 E0 ;Reset Extruder
G1 Z2.0 F3000 ;Move Z Axis up
G1 X-3 Y20 Z0.28 F5000.0 ;Move to start position
M190 S60 ; Set bed temperature and wait
M109 S200.0 ; Set hotend temperature and wait
G1 X-3 Y100.0 Z0.28 F1500.0 E15 ;Draw the first line
G1 X-2 Y100.0 Z0.28 F5000.0 ;Move to side a little
G1 X-2 Y20 Z0.28 F1500.0 E30 ;Draw the second line
G92 E0 ;Reset Extruder
G1 E-1.0000 F1800 ;Retract a bit
G1 Z2.0 F3000 ;Move Z Axis up
G1 E0.0000 F1800 

G92 E0
G92 E0
G1 F2400 E-0.8
;LAYER_COUNT:134
;LAYER:0
M107
G1 F300 Z0.4
G0 F9000 X68.332 Y58.327 Z0.4
;TYPE:SKIRT
G1 F300 Z0.2
G1 F2400 E0
G1 F1800 X70.311 Y56.81 E0.08294
G1 X72.564 Y55.843 E0.16448
G1 X74.25 Y55.626 E0.22102
G1 X144.878 Y55.575 E2.57012
G1 X147.377 Y55.827 E2.65366
G1 X149.71 Y56.826 E2.73807
G1 X151.682 Y58.338 E2.82072
G1 X153.171 Y60.28 E2.90211
G1 X154.174 Y62.631 E2.98712
G1 X154.425 Y65.124 E3.07046
G1 X154.347 Y156.02 E6.09367
G1 X154.129 Y157.49 E6.1431
G1 X153.189 Y159.685 E6.22252
G1 X151.656 Y161.685 E6.30633
G1 X149.713 Y163.174 E6.38775
G1 X147.371 Y164.175 E6.47246
G1 X144.873 Y164.425 E6.55596
G1 X73.977 Y164.347 E8.91397
G1 X72.512 Y164.13 E8.96323
G1 X70.314 Y163.188 E9.04277
G1 X68.315 Y161.656 E9.12653
G1 X66.825 Y159.712 E9.208
G1 X65.827 Y157.372 E9.29261
G1 X65.575 Y154.876 E9.37605
G1 X65.653 Y63.982 E12.3992
G1 X65.871 Y62.508 E12.44876
G1 X66.813 Y60.309 E12.52832
G1 X68.332 Y58.327 E12.61138
G0 F9000 X68.617 Y58.612
G1 F1800 X70.511 Y57.16 E12.69076
G1 X72.671 Y56.233 E12.76893
G1 X74.301 Y56.023 E12.8236
G1 X144.878 Y55.975 E15.171
G1 X147.276 Y56.219 E15.25117
G1 X149.506 Y57.174 E15.33185
G1 X151.397 Y58.623 E15.41109
G1 X152.823 Y60.484 E15.48907
G1 X153.782 Y62.732 E15.57036
G1 X154.025 Y65.124 E15.65032
G1 X153.951 Y155.961 E18.67158
G1 X153.741 Y157.38 E18.71929
G1 X152.839 Y159.485 E18.79546
G1 X151.373 Y161.398 E18.87562
G1 X149.509 Y162.826 E18.95372
G1 X147.27 Y163.783 E19.0347
G1 X144.873 Y164.025 E19.11483
G1 X74.036 Y163.951 E21.47088
G1 X72.621 Y163.741 E21.51846
G1 X70.515 Y162.839 E21.59466
G1 X68.602 Y161.373 E21.67482
G1 X67.173 Y159.508 E21.75297
G1 X66.219 Y157.271 E21.83385
G1 X65.975 Y154.876 E21.91392
G1 X66.049 Y64.041 E24.93511
G1 X66.26 Y62.617 E24.98299
G1 X67.162 Y60.51 E25.05922
G1 X68.617 Y58.612 E25.13876
G0 F9000 X68.904 Y58.895
G1 F1800 X70.711 Y57.51 E25.21449
G1 X72.778 Y56.623 E25.2893
G1 X74.352 Y56.42 E25.34208
G1 X144.878 Y56.375 E27.68779
G1 X147.175 Y56.611 E27.76459
G1 X149.305 Y57.523 E27.84165
G1 X151.112 Y58.908 E27.91738
G1 X152.474 Y60.685 E27.99184
G1 X153.39 Y62.833 E28.06951
G1 X153.625 Y65.124 E28.14611
G1 X153.555 Y155.902 E31.1654
G1 X153.352 Y157.271 E31.21143
G1 X152.49 Y159.284 E31.28426
G1 X151.088 Y161.113 E31.36091
G1 X149.308 Y162.477 E31.4355
G1 X147.169 Y163.391 E31.51287
G1 X144.873 Y163.625 E31.58963
G1 X74.095 Y163.555 E33.94371
G1 X72.731 Y163.353 E33.98958
G1 X70.715 Y162.489 E34.06253
G1 X68.887 Y161.088 E34.13913
G1 X67.522 Y159.307 E34.21376
G1 X66.611 Y157.17 E34.29103
G1 X66.375 Y154.876 E34.36773
G1 X66.445 Y64.1 E37.38695
G1 X66.648 Y62.727 E37.43311
G1 X67.511 Y60.713 E37.50599
G1 X68.904 Y58.895 E37.58217
G0 F9000 X69.189 Y59.18
G1 F1800 X70.911 Y57.86 E37.65433
G1 X72.885 Y57.013 E37.72578
G1 X74.403 Y56.817 E37.77668
G1 X144.878 Y56.775 E40.12069
G1 X147.074 Y57.003 E40.19413
G1 X149.104 Y57.872 E40.26757
G1 X150.827 Y59.193 E40.33978
G1 X152.125 Y60.886 E40.41074
G1 X152.998 Y62.934 E40.48478
G1 X153.225 Y65.124 E40.55801
G1 X153.159 Y155.843 E43.57534
G1 X152.964 Y157.161 E43.61965
G1 X152.14 Y159.084 E43.68924
G1 X150.803 Y160.828 E43.76233
G1 X149.107 Y162.128 E43.8334
G1 X147.068 Y162.999 E43.90715
G1 X144.873 Y163.225 E43.98054
G1 X74.154 Y163.159 E46.33266
G1 X72.84 Y162.964 E46.37685
G1 X70.916 Y162.14 E46.44646
G1 X69.174 Y160.805 E46.51946
G1 X67.87 Y159.103 E46.59077
G1 X67.003 Y157.069 E46.66431
G1 X66.775 Y154.876 E46.73764
G1 X66.841 Y64.158 E49.75494
G1 X67.036 Y62.838 E49.79932
G1 X67.861 Y60.913 E49.86898
G1 X69.189 Y59.18 E49.94159
G0 F9000 X69.474 Y59.465
G1 F1800 X71.111 Y58.21 E50.0102
G1 X72.992 Y57.403 E50.07828
G1 X74.454 Y57.214 E50.12731
G1 X144.878 Y57.175 E52.46962
G1 X146.973 Y57.395 E52.53968
G1 X148.9 Y58.22 E52.6094
G1 X150.542 Y59.478 E52.6782
G1 X151.777 Y61.09 E52.74574
G1 X152.606 Y63.035 E52.81606
G1 X152.825 Y65.124 E52.88593
G1 X152.763 Y155.784 E55.90129
G1 X152.575 Y157.052 E55.94392
G1 X151.791 Y158.883 E56.01017
G1 X150.52 Y160.541 E56.07966
G1 X148.903 Y161.78 E56.14741
G1 X146.967 Y162.607 E56.21743
G1 X144.873 Y162.825 E56.28745
G1 X74.213 Y162.763 E58.63762
G1 X72.95 Y162.576 E58.68008
G1 X71.116 Y161.79 E58.74645
G1 X69.459 Y160.52 E58.81588
G1 X68.219 Y158.902 E58.88369
G1 X67.395 Y156.968 E58.95361
G1 X67.175 Y154.876 E59.02357
G1 X67.237 Y64.216 E62.03893
G1 X67.424 Y62.949 E62.08153
G1 X68.211 Y61.113 E62.14797
G1 X69.474 Y59.465 E62.21703
G0 F9000 X69.759 Y59.75
G1 F1800 X71.311 Y58.56 E62.28208
G1 X73.099 Y57.793 E62.34679
G1 X74.505 Y57.611 E62.39394
G1 X144.878 Y57.575 E64.73456
G1 X146.871 Y57.787 E64.80122
G1 X148.699 Y58.569 E64.86735
G1 X150.257 Y59.763 E64.93263
G1 X151.428 Y61.291 E64.99666
G1 X152.214 Y63.136 E65.06336
G1 X152.425 Y65.124 E65.12986
G1 X152.367 Y155.725 E68.14326
G1 X152.187 Y156.942 E68.18418
G1 X151.441 Y158.683 E68.24717
G1 X150.235 Y160.256 E68.3131
G1 X148.702 Y161.431 E68.37734
G1 X146.866 Y162.215 E68.44374
G1 X144.873 Y162.425 E68.5104
G1 X74.272 Y162.367 E70.8586
G1 X73.059 Y162.187 E70.89938
G1 X71.317 Y161.441 E70.96241
G1 X69.746 Y160.237 E71.02824
G1 X68.567 Y158.698 E71.09272
G1 X67.787 Y156.867 E71.15892
G1 X67.575 Y154.876 E71.22551
G1 X67.633 Y64.275 E74.23892
G1 X67.813 Y63.058 E74.27983
G1 X68.56 Y61.314 E74.34294
G1 X69.759 Y59.75 E74.40848
G0 F9000 X70.044 Y60.035
G1 F1800 X71.511 Y58.91 E74.46997
G1 X73.206 Y58.183 E74.53131
G1 X74.556 Y58.008 E74.57659
G1 X144.878 Y57.975 E76.91551
G1 X146.77 Y58.179 E76.9788
G1 X148.498 Y58.918 E77.04131
G1 X149.97 Y60.046 E77.10299
G1 X151.08 Y61.495 E77.1637
G1 X151.822 Y63.237 E77.22668
G1 X152.025 Y65.124 E77.2898
G1 X151.971 Y155.667 E80.30127
G1 X151.799 Y156.831 E80.34041
G1 X151.091 Y158.483 E80.40019
G1 X149.952 Y159.969 E80.46246
G1 X148.498 Y161.083 E80.52338
G1 X146.765 Y161.823 E80.58606
G1 X144.873 Y162.025 E80.64935
G1 X74.331 Y161.971 E82.99558
G1 X73.169 Y161.799 E83.03465
G1 X71.517 Y161.091 E83.09443
G1 X70.031 Y159.952 E83.1567
G1 X68.916 Y158.497 E83.21767
G1 X68.179 Y156.766 E83.28025
G1 X67.975 Y154.876 E83.34347
G1 X68.029 Y64.333 E86.35495
G1 X68.201 Y63.169 E86.39408
G1 X68.91 Y61.514 E86.45397
G1 X70.044 Y60.035 E86.51595
G0 F9000 X70.331 Y60.318
G1 F1800 X71.711 Y59.26 E86.57379
G1 X73.313 Y58.573 E86.63177
G1 X74.607 Y58.405 E86.67516
G1 X144.878 Y58.375 E89.01239
G1 X146.669 Y58.571 E89.07231
G1 X148.297 Y59.267 E89.1312
G1 X149.685 Y60.331 E89.18937
G1 X150.731 Y61.696 E89.24657
G1 X151.43 Y63.338 E89.30592
G1 X151.625 Y65.124 E89.36568
G1 X151.575 Y155.609 E92.37522
G1 X151.411 Y156.72 E92.41257
G1 X150.741 Y158.283 E92.46913
G1 X149.667 Y159.684 E92.52785
G1 X148.297 Y160.734 E92.58526
G1 X146.664 Y161.431 E92.64431
G1 X144.873 Y161.625 E92.70423
G1 X74.39 Y161.575 E95.04851
G1 X73.278 Y161.41 E95.0859
G1 X71.718 Y160.742 E95.14234
G1 X70.316 Y159.667 E95.2011
G1 X69.265 Y158.296 E95.25856
G1 X68.571 Y156.665 E95.31751
G1 X68.375 Y154.876 E95.37737
G1 X68.425 Y64.391 E98.38691
G1 X68.589 Y63.28 E98.42426
G1 X69.259 Y61.717 E98.48082
G1 X70.331 Y60.318 E98.53945
G0 F9000 X70.616 Y60.603
G1 F1800 X71.911 Y59.61 E98.59372
G1 X73.42 Y58.963 E98.64833
G1 X74.659 Y58.802 E98.68989
G1 X144.878 Y58.775 E101.02538
G1 X146.567 Y58.963 E101.0819
G1 X148.096 Y59.616 E101.1372
G1 X149.4 Y60.616 E101.19186
G1 X150.382 Y61.897 E101.24554
G1 X151.038 Y63.439 E101.30128
G1 X151.225 Y65.124 E101.35767
G1 X151.179 Y155.55 E104.36525
G1 X151.022 Y156.611 E104.40092
G1 X150.392 Y158.082 E104.45414
G1 X149.382 Y159.399 E104.50935
G1 X148.096 Y160.385 E104.56324
G1 X146.563 Y161.039 E104.61868
G1 X144.873 Y161.225 E104.67523
G1 X74.449 Y161.179 E107.01754
G1 X73.388 Y161.022 E107.05321
G1 X71.918 Y160.392 E107.10641
G1 X70.603 Y159.384 E107.16151
G1 X69.613 Y158.092 E107.21565
G1 X68.963 Y156.564 E107.27088
G1 X68.775 Y154.876 E107.32737
G1 X68.821 Y64.45 E110.33495
G1 X68.978 Y63.389 E110.37062
G1 X69.608 Y61.918 E110.42385
G1 X70.616 Y60.603 E110.47896
G0 F9000 X70.901 Y60.888
G1 F1800 X72.111 Y59.96 E110.52967
G1 X73.527 Y59.353 E110.58092
G1 X74.711 Y59.199 E110.62063
G1 X144.878 Y59.175 E112.95439
G1 X146.462 Y59.353 E113.00741
G1 X147.892 Y59.964 E113.05913
G1 X149.115 Y60.901 E113.11037
G1 X150.035 Y62.102 E113.16069
G1 X150.647 Y63.542 E113.21273
G1 X150.825 Y65.124 E113.26568
G1 X150.783 Y155.491 E116.2713
G1 X150.633 Y156.502 E116.30529
G1 X150.043 Y157.881 E116.35518
G1 X149.097 Y159.114 E116.40687
G1 X147.895 Y160.036 E116.45726
G1 X146.462 Y160.647 E116.50907
G1 X144.873 Y160.825 E116.56225
G1 X74.507 Y160.783 E118.90263
G1 X73.499 Y160.634 E118.93652
G1 X72.118 Y160.042 E118.9865
G1 X70.888 Y159.099 E119.03805
G1 X69.962 Y157.891 E119.08867
G1 X69.353 Y156.46 E119.1404
G1 X69.175 Y154.876 E119.19341
G1 X69.217 Y64.509 E122.19903
G1 X69.367 Y63.498 E122.23303
G1 X69.957 Y62.119 E122.28291
G1 X70.901 Y60.888 E122.33451
G0 F9000 X71.188 Y61.171
G1 F1800 X72.311 Y60.31 E122.38158
G1 X73.634 Y59.743 E122.42945
G1 X74.763 Y59.596 E122.46732
G1 X144.878 Y59.575 E124.79935
G1 X146.357 Y59.743 E124.84886
G1 X147.691 Y60.313 E124.89711
G1 X148.83 Y61.186 E124.94484
G1 X149.687 Y62.304 E124.99169
G1 X150.257 Y63.645 E125.04016
G1 X150.425 Y65.124 E125.08967
G1 X150.387 Y155.432 E128.09332
G1 X150.245 Y156.392 E128.1256
G1 X149.694 Y157.678 E128.17213
G1 X148.812 Y158.829 E128.22036
G1 X147.691 Y159.688 E128.26734
G1 X146.357 Y160.257 E128.31557
G1 X144.873 Y160.425 E128.36524
G1 X74.565 Y160.387 E130.7037
G1 X73.61 Y160.246 E130.73581
G1 X72.318 Y159.692 E130.78256
G1 X71.175 Y158.816 E130.83046
G1 X70.31 Y157.687 E130.87776
G1 X69.743 Y156.355 E130.92591
G1 X69.575 Y154.876 E130.97542
G1 X69.613 Y64.568 E133.97908
G1 X69.755 Y63.608 E134.01136
G1 X70.306 Y62.322 E134.05789
G1 X71.188 Y61.171 E134.10612
G0 F9000 X71.473 Y61.456
G1 F1800 X72.511 Y60.66 E134.14963
G1 X73.741 Y60.133 E134.19413
G1 X74.815 Y59.993 E134.23016
G1 X144.878 Y59.975 E136.56046
G1 X146.252 Y60.133 E136.60646
G1 X147.49 Y60.662 E136.65124
G1 X148.543 Y61.469 E136.69536
G1 X149.339 Y62.508 E136.7389
G1 X149.867 Y63.749 E136.78375
G1 X150.025 Y65.124 E136.82979
G1 X149.991 Y155.373 E139.83148
G1 X149.856 Y156.283 E139.86208
G1 X149.345 Y157.477 E139.90528
G1 X148.527 Y158.544 E139.94999
G1 X147.49 Y159.339 E139.99345
G1 X146.252 Y159.867 E140.03822
G1 X144.873 Y160.025 E140.08438
G1 X74.624 Y159.991 E142.42088
G1 X73.719 Y159.857 E142.4513
G1 X72.519 Y159.343 E142.49472
G1 X71.46 Y158.531 E142.53911
G1 X70.659 Y157.486 E142.5829
G1 X70.133 Y156.251 E142.62755
G1 X69.975 Y154.876 E142.67358
G1 X70.009 Y64.627 E145.67528
G1 X70.144 Y63.717 E145.70587
G1 X70.655 Y62.523 E145.74907
G1 X71.473 Y61.456 E145.79379
G0 F9000 X71.756 Y61.743
G1 F1800 X72.714 Y61.009 E145.83393
G1 X73.848 Y60.523 E145.87496
G1 X74.867 Y60.39 E145.90914
G1 X144.878 Y60.375 E148.23772
G1 X146.147 Y60.523 E148.28021
G1 X147.289 Y61.011 E148.32152
G1 X148.258 Y61.754 E148.36213
G1 X148.99 Y62.709 E148.40215
G1 X149.477 Y63.854 E148.44354
G1 X149.625 Y65.124 E148.48606
G1 X149.595 Y155.314 E151.48579
G1 X149.468 Y156.173 E151.51467
G1 X148.995 Y157.277 E151.55462
G1 X148.244 Y158.257 E151.59569
G1 X147.286 Y158.991 E151.63583
G1 X146.147 Y159.477 E151.67702
G1 X144.873 Y159.625 E151.71967
G1 X74.683 Y159.595 E154.0542
G1 X73.828 Y159.468 E154.08295
G1 X72.72 Y158.994 E154.12303
G1 X71.745 Y158.246 E154.16391
G1 X71.008 Y157.285 E154.20419
G1 X70.523 Y156.146 E154.24536
G1 X70.375 Y154.876 E154.28789
G1 X70.405 Y64.686 E157.28762
G1 X70.532 Y63.827 E157.3165
G1 X71.005 Y62.723 E157.35645
G1 X71.756 Y61.743 E157.39751
G0 F9000 X72.041 Y62.028
G1 F1800 X72.915 Y61.358 E157.43414
G1 X73.954 Y60.913 E157.47174
G1 X74.919 Y60.787 E157.5041
G1 X144.878 Y60.775 E159.83095
G1 X146.042 Y60.913 E159.86994
G1 X147.088 Y61.36 E159.90777
G1 X147.971 Y62.037 E159.94478
G1 X148.642 Y62.913 E159.98148
G1 X149.087 Y63.959 E160.01929
G1 X149.225 Y65.124 E160.0583
G1 X149.199 Y155.255 E163.05607
G1 X149.079 Y156.064 E163.08328
G1 X148.646 Y157.076 E163.11989
G1 X147.959 Y157.972 E163.15744
G1 X147.085 Y158.642 E163.19407
G1 X146.042 Y159.087 E163.23178
G1 X144.873 Y159.225 E163.27093
G1 X74.742 Y159.199 E165.6035
G1 X73.938 Y159.08 E165.63053
G1 X72.923 Y158.645 E165.66726
G1 X72.03 Y157.961 E165.70467
G1 X71.356 Y157.081 E165.74154
G1 X70.913 Y156.041 E165.77914
G1 X70.775 Y154.876 E165.81816
G1 X70.801 Y64.745 E168.81593
G1 X70.921 Y63.936 E168.84313
G1 X71.354 Y62.924 E168.87974
G1 X72.041 Y62.028 E168.91729
G0 F9000 X72.324 Y62.315
G1 F1800 X73.119 Y61.706 E168.9506
G1 X74.06 Y61.303 E168.98465
G1 X74.971 Y61.184 E169.01521
G1 X144.878 Y61.175 E171.34032
G1 X145.937 Y61.303 E171.3758
G1 X146.887 Y61.709 E171.41016
G1 X147.686 Y62.322 E171.44366
G1 X148.293 Y63.114 E171.47685
G1 X148.697 Y64.064 E171.51118
G1 X148.825 Y65.124 E171.5467
G1 X148.803 Y155.197 E174.54254
G1 X148.691 Y155.955 E174.56802
G1 X148.297 Y156.875 E174.60131
G1 X147.676 Y157.685 E174.63525
G1 X146.881 Y158.294 E174.66856
G1 X145.937 Y158.697 E174.7027
G1 X144.873 Y158.825 E174.73835
G1 X74.801 Y158.803 E177.06895
G1 X74.047 Y158.691 E177.0943
G1 X73.124 Y158.296 E177.1277
G1 X72.315 Y157.676 E177.1616
G1 X71.705 Y156.88 E177.19495
G1 X71.303 Y155.936 E177.22908
G1 X71.175 Y154.876 E177.26459
G1 X71.197 Y64.803 E180.26043
G1 X71.309 Y64.045 E180.28591
G1 X71.703 Y63.125 E180.3192
G1 X72.324 Y62.315 E180.35315
G0 F9000 X72.609 Y62.6
G1 F1800 X73.32 Y62.055 E180.38294
G1 X74.166 Y61.693 E180.41355
G1 X75.023 Y61.581 E180.4423
G1 X144.878 Y61.575 E182.76568
G1 X145.832 Y61.693 E182.79766
G1 X146.686 Y62.058 E182.82855
G1 X147.399 Y62.605 E182.85843
G1 X147.945 Y63.318 E182.8883
G1 X148.307 Y64.169 E182.91906
G1 X148.425 Y65.124 E182.95107
G1 X148.407 Y155.139 E185.94498
G1 X148.303 Y155.844 E185.96868
G1 X147.947 Y156.675 E185.99875
G1 X147.391 Y157.4 E186.02914
G1 X146.68 Y157.945 E186.05893
G1 X145.832 Y158.307 E186.0896
G1 X144.873 Y158.425 E186.12174
G1 X74.86 Y158.407 E188.45038
G1 X74.157 Y158.303 E188.47402
G1 X73.324 Y157.946 E188.50416
G1 X72.6 Y157.391 E188.5345
G1 X72.054 Y156.679 E188.56434
G1 X71.693 Y155.831 E188.595
G1 X71.575 Y154.876 E188.627
G1 X71.593 Y64.861 E191.62091
G1 X71.697 Y64.156 E191.64462
G1 X72.053 Y63.325 E191.67468
G1 X72.609 Y62.6 E191.70507
G0 F9000 X72.892 Y62.887
G1 F1800 X73.524 Y62.403 E191.73155
G1 X74.272 Y62.083 E191.75861
G1 X75.075 Y61.978 E191.78554
G1 X144.878 Y61.975 E194.1072
G1 X145.727 Y62.083 E194.13567
G1 X146.483 Y62.406 E194.16301
G1 X147.113 Y62.89 E194.18943
G1 X147.597 Y63.522 E194.21591
G1 X147.917 Y64.274 E194.24309
G1 X148.025 Y65.124 E194.27159
G1 X148.011 Y155.081 E197.26357
G1 X147.915 Y155.733 E197.28549
G1 X147.597 Y156.475 E197.31234
G1 X147.108 Y157.113 E197.33908
G1 X146.476 Y157.597 E197.36555
G1 X145.727 Y157.917 E197.39264
G1 X144.873 Y158.025 E197.42127
G1 X74.919 Y158.011 E199.74795
G1 X74.266 Y157.914 E199.76991
G1 X73.525 Y157.597 E199.79672
G1 X72.887 Y157.108 E199.82345
G1 X72.402 Y156.475 E199.84998
G1 X72.083 Y155.726 E199.87705
G1 X71.975 Y154.876 E199.90555
G1 X71.989 Y64.919 E202.89753
G1 X72.085 Y64.267 E202.91945
G1 X72.403 Y63.525 E202.9463
G1 X72.892 Y62.887 E202.97304
G0 F9000 X73.177 Y63.172
G1 F1800 X73.725 Y62.752 E202.996
G1 X74.378 Y62.473 E203.01962
G1 X75.127 Y62.375 E203.04475
G1 X144.878 Y62.375 E205.36467
G1 X145.622 Y62.473 E205.38963
