;FLAVOR:Marlin
;TIME:3261
;Filament used: 5.09882m
;Layer height: 0.2
;MINX:65.575
;MINY:55.575
;MINZ:0.2
;MAXX:154.425
;MAXY:164.425
;MAXZ:7
;TARGET_MACHINE.NAME:Creality Ender-3 V3 SE
;Generated with Cura_SteamEngine 5.8.1
M82 ;absolute extrusion mode
M220 S100 ;Reset Feedrate
M221 S100 ;Reset Flowrate

G28 ;Home

M420 S1; Use saved mesh leveling data

G92 E0 ;Reset Extruder
G1 Z2.0 F3000 ;Move Z Axis up
G1 X-3 Y20 Z0.28 F5000.0 ;Move to start position
M190 S60 ; Set bed temperature and wait
M109 S200.0 ; Set hotend temperature and wait
G1 X-3 Y100.0 Z0.28 F1500.0 E15 ;Draw the first line
G1 X-2 Y100.0 Z0.28 F5000.0 ;Move to side a little
G1 X-2 Y20 Z0.28 F1500.0 E30 ;Draw the second line
G92 E0 ;Reset Extruder
G1 E-1.0000 F1800 ;Retract a bit
G1 Z2.0 F3000 ;Move Z Axis up
G1 E0.0000 F1800 

G92 E0
G92 E0
G1 F2400 E-0.8
;LAYER_COUNT:34
;LAYER:0
M107
G1 F300 Z0.4
G0 F9000 X68.338 Y58.309 Z0.4
;TYPE:SKIRT
G1 F300 Z0.2
G1 F2400 E0
G1 F1800 X70.24 Y56.84 E0.07993
G1 X72.567 Y55.843 E0.16413
G1 X74.247 Y55.626 E0.22047
G1 X144.873 Y55.575 E2.56951
G1 X147.37 Y55.825 E2.65297
G1 X149.761 Y56.845 E2.73943
G1 X151.669 Y58.319 E2.81962
G1 X153.16 Y60.249 E2.90074
G1 X154.175 Y62.63 E2.98683
G1 X154.425 Y65.124 E3.07019
G1 X154.347 Y155.992 E6.09248
G1 X154.131 Y157.477 E6.14239
G1 X153.158 Y159.755 E6.22478
G1 X151.673 Y161.678 E6.30559
G1 X149.759 Y163.156 E6.38602
G1 X147.37 Y164.175 E6.4724
G1 X144.873 Y164.425 E6.55587
G1 X74.008 Y164.347 E8.91285
G1 X72.519 Y164.131 E8.96289
G1 X70.244 Y163.158 E9.04519
G1 X68.329 Y161.679 E9.12566
G1 X66.84 Y159.751 E9.20669
G1 X65.825 Y157.37 E9.29278
G1 X65.575 Y154.876 E9.37614
G1 X65.653 Y64.008 E12.39843
G1 X65.869 Y62.523 E12.44834
G1 X66.839 Y60.251 E12.5305
G1 X68.338 Y58.309 E12.6121
G0 F9000 X68.622 Y58.596
G1 F1800 X70.445 Y57.188 E12.68871
G1 X72.674 Y56.233 E12.76936
G1 X74.298 Y56.023 E12.82383
G1 X144.873 Y55.975 E15.17116
G1 X147.269 Y56.217 E15.25126
G1 X149.557 Y57.193 E15.33399
G1 X151.384 Y58.604 E15.41077
G1 X152.812 Y60.453 E15.48848
G1 X153.783 Y62.731 E15.57084
G1 X154.025 Y65.124 E15.65084
G1 X153.951 Y155.935 E18.67122
G1 X153.743 Y157.368 E18.71938
G1 X152.81 Y159.551 E18.79834
G1 X151.388 Y161.393 E18.87574
G1 X149.555 Y162.808 E18.95276
G1 X147.269 Y163.783 E19.03542
G1 X144.873 Y164.025 E19.11552
G1 X74.066 Y163.951 E21.47057
G1 X72.628 Y163.742 E21.5189
G1 X70.448 Y162.81 E21.59775
G1 X68.614 Y161.394 E21.67482
G1 X67.188 Y159.547 E21.75243
G1 X66.217 Y157.269 E21.83479
G1 X65.975 Y154.876 E21.91479
G1 X66.049 Y64.065 E24.93517
G1 X66.257 Y62.632 E24.98334
G1 X67.187 Y60.455 E25.06207
G1 X68.622 Y58.596 E25.14018
G0 F9000 X68.906 Y58.883
G1 F1800 X70.65 Y57.536 E25.21348
G1 X72.781 Y56.623 E25.29058
G1 X74.349 Y56.42 E25.34317
G1 X144.873 Y56.375 E27.68881
G1 X147.168 Y56.609 E27.76554
G1 X149.353 Y57.541 E27.84455
G1 X151.099 Y58.889 E27.91791
G1 X152.464 Y60.657 E27.9922
G1 X153.391 Y62.832 E28.07084
G1 X153.625 Y65.124 E28.14747
G1 X153.555 Y155.877 E31.16593
G1 X153.354 Y157.259 E31.21237
G1 X152.463 Y159.345 E31.28782
G1 X151.102 Y161.107 E31.36187
G1 X149.349 Y162.461 E31.43554
G1 X147.168 Y163.391 E31.5144
G1 X144.873 Y163.625 E31.59113
G1 X74.123 Y163.555 E33.94429
G1 X72.737 Y163.354 E33.99087
G1 X70.654 Y162.463 E34.06622
G1 X68.9 Y161.108 E34.13994
G1 X67.535 Y159.341 E34.2142
G1 X66.609 Y157.168 E34.29276
G1 X66.375 Y154.876 E34.36939
G1 X66.445 Y64.123 E37.38785
G1 X66.646 Y62.741 E37.4343
G1 X67.535 Y60.659 E37.5096
G1 X68.906 Y58.883 E37.58422
G0 F9000 X69.19 Y59.17
G1 F1800 X70.855 Y57.884 E37.65419
G1 X72.888 Y57.013 E37.72775
G1 X74.4 Y56.817 E37.77847
G1 X144.873 Y56.775 E40.12241
G1 X147.067 Y57.001 E40.19577
G1 X149.147 Y57.888 E40.27097
G1 X150.813 Y59.175 E40.34099
G1 X152.117 Y60.863 E40.41194
G1 X152.999 Y62.933 E40.48678
G1 X153.225 Y65.124 E40.56004
G1 X153.159 Y155.82 E43.5766
G1 X152.966 Y157.15 E43.6213
G1 X152.115 Y159.141 E43.69331
G1 X150.817 Y160.822 E43.76395
G1 X149.145 Y162.113 E43.83421
G1 X147.067 Y162.999 E43.90935
G1 X144.873 Y163.225 E43.9827
G1 X74.181 Y163.159 E46.33393
G1 X72.846 Y162.965 E46.3788
G1 X70.858 Y162.115 E46.45071
G1 X69.185 Y160.823 E46.52102
G1 X67.883 Y159.137 E46.59187
G1 X67.001 Y157.067 E46.66671
G1 X66.775 Y154.876 E46.73997
G1 X66.841 Y64.18 E49.75653
G1 X67.034 Y62.85 E49.80123
G1 X67.883 Y60.863 E49.87309
G1 X69.19 Y59.17 E49.94423
G0 F9000 X69.474 Y59.457
G1 F1800 X71.06 Y58.232 E50.01088
G1 X72.995 Y57.403 E50.0809
G1 X74.451 Y57.214 E50.12973
G1 X144.873 Y57.175 E52.47198
G1 X146.966 Y57.393 E52.54197
G1 X148.943 Y58.236 E52.61345
G1 X150.528 Y59.46 E52.68006
G1 X151.769 Y61.067 E52.74759
G1 X152.607 Y63.034 E52.8187
G1 X152.825 Y65.124 E52.88859
G1 X152.763 Y155.762 E55.90323
G1 X152.577 Y157.041 E55.94621
G1 X151.767 Y158.937 E56.01479
G1 X150.532 Y160.537 E56.08201
G1 X148.941 Y161.765 E56.14886
G1 X146.966 Y162.607 E56.22027
G1 X144.873 Y162.825 E56.29026
G1 X74.238 Y162.763 E58.63959
G1 X72.955 Y162.577 E58.68271
G1 X71.062 Y161.767 E58.75119
G1 X69.47 Y160.538 E58.81808
G1 X68.231 Y158.933 E58.88552
G1 X67.393 Y156.966 E58.95664
G1 X67.175 Y154.876 E59.02653
G1 X67.237 Y64.238 E62.04116
G1 X67.423 Y62.959 E62.08415
G1 X68.231 Y61.067 E62.15257
G1 X69.474 Y59.457 E62.22022
G0 F9000 X69.758 Y59.744
G1 F1800 X71.265 Y58.58 E62.28356
G1 X73.102 Y57.793 E62.35003
G1 X74.503 Y57.611 E62.39702
G1 X144.873 Y57.575 E64.73753
G1 X146.865 Y57.785 E64.80415
G1 X148.739 Y58.584 E64.87191
G1 X150.243 Y59.745 E64.93511
G1 X151.421 Y61.271 E64.99922
G1 X152.215 Y63.135 E65.06661
G1 X152.425 Y65.124 E65.13313
G1 X152.367 Y155.705 E68.14587
G1 X152.189 Y156.932 E68.18711
G1 X151.42 Y158.731 E68.25218
G1 X150.246 Y160.251 E68.31606
G1 X148.735 Y161.418 E68.37956
G1 X146.865 Y162.215 E68.44717
G1 X144.873 Y162.425 E68.51379
G1 X74.296 Y162.367 E70.86119
G1 X73.064 Y162.188 E70.9026
G1 X71.268 Y161.42 E70.96757
G1 X69.756 Y160.252 E71.03111
G1 X68.578 Y158.727 E71.0952
G1 X67.785 Y156.865 E71.16252
G1 X67.575 Y154.876 E71.22904
G1 X67.633 Y64.295 E74.24178
G1 X67.811 Y63.068 E74.28301
G1 X68.579 Y61.271 E74.34801
G1 X69.758 Y59.744 E74.41218
G0 F9000 X70.042 Y60.031
G1 F1800 X71.47 Y58.928 E74.47219
G1 X73.209 Y58.183 E74.53511
G1 X74.555 Y58.008 E74.58026
G1 X144.873 Y57.975 E76.91905
G1 X146.764 Y58.177 E76.9823
G1 X148.533 Y58.931 E77.04626
G1 X149.957 Y60.031 E77.10611
G1 X151.074 Y61.477 E77.16688
G1 X151.823 Y63.236 E77.23047
G1 X152.025 Y65.124 E77.29362
G1 X151.971 Y155.647 E80.30443
G1 X151.8 Y156.823 E80.34395
G1 X151.072 Y158.527 E80.40558
G1 X149.961 Y159.966 E80.46605
G1 X148.531 Y161.07 E80.52614
G1 X146.764 Y161.823 E80.59002
G1 X144.873 Y162.025 E80.65327
G1 X74.353 Y161.971 E82.99878
G1 X73.173 Y161.8 E83.03844
G1 X71.472 Y161.072 E83.09997
G1 X70.041 Y159.967 E83.16011
G1 X68.926 Y158.523 E83.22079
G1 X68.177 Y156.764 E83.28438
G1 X67.975 Y154.876 E83.34753
G1 X68.029 Y64.353 E86.35834
G1 X68.2 Y63.177 E86.39786
G1 X68.927 Y61.475 E86.45942
G1 X70.042 Y60.031 E86.5201
G0 F9000 X70.326 Y60.318
G1 F1800 X71.675 Y59.276 E86.57679
G1 X73.316 Y58.573 E86.63617
G1 X74.607 Y58.405 E86.67947
G1 X144.873 Y58.375 E89.01653
G1 X146.663 Y58.569 E89.07641
G1 X148.329 Y59.279 E89.13664
G1 X149.672 Y60.316 E89.19308
G1 X150.726 Y61.681 E89.25044
G1 X151.431 Y63.337 E89.3103
G1 X151.625 Y65.124 E89.37009
G1 X151.575 Y155.59 E92.379
G1 X151.412 Y156.714 E92.41677
G1 X150.725 Y158.321 E92.4749
G1 X149.675 Y159.68 E92.53202
G1 X148.325 Y160.723 E92.58876
G1 X146.663 Y161.431 E92.64885
G1 X144.873 Y161.625 E92.70873
G1 X74.411 Y161.575 E95.05231
G1 X73.282 Y161.411 E95.09025
G1 X71.678 Y160.725 E95.14828
G1 X70.325 Y159.68 E95.20514
G1 X69.274 Y158.319 E95.26233
G1 X68.569 Y156.663 E95.32219
G1 X68.375 Y154.876 E95.38198
G1 X68.425 Y64.41 E98.39089
G1 X68.588 Y63.286 E98.42867
G1 X69.275 Y61.679 E98.48679
G1 X70.326 Y60.318 E98.54399
G0 F9000 X70.61 Y60.605
G1 F1800 X71.881 Y59.623 E98.59741
G1 X73.422 Y58.963 E98.65316
G1 X74.659 Y58.802 E98.69465
G1 X144.873 Y58.775 E101.02998
G1 X146.562 Y58.961 E101.0865
G1 X148.123 Y59.626 E101.14293
G1 X149.388 Y60.603 E101.19609
G1 X150.378 Y61.885 E101.24997
G1 X151.039 Y63.438 E101.3061
G1 X151.225 Y65.124 E101.36252
G1 X151.179 Y155.532 E104.3695
G1 X151.023 Y156.605 E104.40557
G1 X150.377 Y158.117 E104.46025
G1 X149.39 Y159.395 E104.51396
G1 X148.121 Y160.375 E104.56729
G1 X146.562 Y161.039 E104.62365
G1 X144.873 Y161.225 E104.68016
G1 X74.469 Y161.179 E107.02181
G1 X73.391 Y161.022 E107.05804
G1 X71.882 Y160.377 E107.11263
G1 X70.61 Y159.395 E107.16607
G1 X69.622 Y158.115 E107.21985
G1 X68.961 Y156.562 E107.27599
G1 X68.775 Y154.876 E107.33241
G1 X68.821 Y64.468 E110.33939
G1 X68.977 Y63.395 E110.37545
G1 X69.623 Y61.883 E110.43014
G1 X70.61 Y60.605 E110.48385
G0 F9000 X70.895 Y60.89
G1 F1800 X72.084 Y59.972 E110.53381
G1 X73.529 Y59.353 E110.5861
G1 X74.711 Y59.199 E110.62574
G1 X144.873 Y59.175 E112.95934
G1 X146.461 Y59.353 E113.01249
G1 X147.919 Y59.974 E113.0652
G1 X149.103 Y60.888 E113.11494
G1 X150.03 Y62.089 E113.1654
G1 X150.647 Y63.539 E113.21782
G1 X150.825 Y65.124 E113.27086
G1 X150.783 Y155.475 E116.27595
G1 X150.635 Y156.496 E116.31026
G1 X150.029 Y157.913 E116.36152
G1 X149.105 Y159.11 E116.41182
G1 X147.917 Y160.027 E116.46173
G1 X146.461 Y160.647 E116.51437
G1 X144.873 Y160.825 E116.56752
G1 X74.526 Y160.783 E118.90727
G1 X73.5 Y160.634 E118.94175
G1 X72.088 Y160.03 E118.99283
G1 X70.896 Y159.109 E119.04293
G1 X69.969 Y157.909 E119.09336
G1 X69.353 Y156.461 E119.1457
G1 X69.175 Y154.876 E119.19875
G1 X69.217 Y64.525 E122.20384
G1 X69.365 Y63.504 E122.23815
G1 X69.971 Y62.087 E122.28941
G1 X70.895 Y60.89 E122.3397
G0 F9000 X71.181 Y61.176
G1 F1800 X72.289 Y60.32 E122.38627
G1 X73.636 Y59.743 E122.43501
G1 X74.763 Y59.596 E122.47281
G1 X144.873 Y59.575 E124.80468
G1 X146.356 Y59.743 E124.85432
G1 X147.713 Y60.321 E124.90338
G1 X148.817 Y61.174 E124.94978
G1 X149.683 Y62.295 E124.9969
G1 X150.257 Y63.644 E125.04566
G1 X150.425 Y65.124 E125.0952
G1 X150.387 Y155.417 E128.09836
G1 X150.246 Y156.387 E128.13096
G1 X149.682 Y157.707 E128.1787
G1 X148.819 Y158.824 E128.22565
G1 X147.711 Y159.68 E128.27222
G1 X146.356 Y160.257 E128.3212
G1 X144.873 Y160.425 E128.37084
G1 X74.584 Y160.387 E130.70866
G1 X73.609 Y160.245 E130.74143
G1 X72.292 Y159.682 E130.78907
G1 X71.181 Y158.824 E130.83576
G1 X70.317 Y157.705 E130.88278
G1 X69.743 Y156.356 E130.93154
G1 X69.575 Y154.876 E130.98108
G1 X69.613 Y64.583 E133.98424
G1 X69.754 Y63.613 E134.01684
G1 X70.318 Y62.293 E134.06459
G1 X71.181 Y61.176 E134.11153
G0 F9000 X71.466 Y61.461
G1 F1800 X72.493 Y60.668 E134.15469
G1 X73.742 Y60.133 E134.19988
G1 X74.815 Y59.993 E134.23587
G1 X144.873 Y59.975 E136.56601
G1 X146.252 Y60.133 E136.61218
G1 X147.509 Y60.669 E136.65763
G1 X148.532 Y61.459 E136.70062
G1 X149.335 Y62.499 E136.74432
G1 X149.867 Y63.748 E136.78947
G1 X150.025 Y65.124 E136.83554
G1 X149.991 Y155.36 E139.8368
G1 X149.858 Y156.278 E139.86765
G1 X149.334 Y157.503 E139.91197
G1 X148.534 Y158.539 E139.9555
G1 X147.507 Y159.332 E139.99866
G1 X146.252 Y159.867 E140.04403
G1 X144.873 Y160.025 E140.0902
G1 X74.641 Y159.991 E142.42613
G1 X73.718 Y159.857 E142.45715
G1 X72.498 Y159.335 E142.50128
G1 X71.465 Y158.537 E142.5447
G1 X70.665 Y157.501 E142.58823
G1 X70.133 Y156.252 E142.63339
G1 X69.975 Y154.876 E142.67945
G1 X70.009 Y64.64 E145.68071
G1 X70.142 Y63.722 E145.71157
G1 X70.666 Y62.497 E145.75588
G1 X71.466 Y61.461 E145.79942
G0 F9000 X71.751 Y61.746
G1 F1800 X72.697 Y61.016 E145.83916
G1 X73.848 Y60.523 E145.88081
G1 X74.867 Y60.39 E145.91498
G1 X144.873 Y60.375 E148.24339
G1 X146.147 Y60.523 E148.28605
G1 X147.303 Y61.016 E148.32785
G1 X148.248 Y61.746 E148.36757
G1 X148.987 Y62.703 E148.40778
G1 X149.477 Y63.853 E148.44936
G1 X149.625 Y65.124 E148.49192
G1 X149.595 Y155.302 E151.49125
G1 X149.469 Y156.169 E151.52039
G1 X148.986 Y157.299 E151.56126
G1 X148.249 Y158.254 E151.60139
G1 X147.303 Y158.984 E151.64113
G1 X146.147 Y159.477 E151.68293
G1 X144.873 Y159.625 E151.72559
G1 X74.699 Y159.595 E154.05958
G1 X73.827 Y159.468 E154.08889
G1 X72.704 Y158.988 E154.12951
G1 X71.749 Y158.25 E154.16966
G1 X71.013 Y157.297 E154.2097
G1 X70.523 Y156.147 E154.25128
G1 X70.375 Y154.876 E154.29384
G1 X70.405 Y64.698 E157.29317
G1 X70.531 Y63.831 E157.32231
G1 X71.014 Y62.701 E157.36319
G1 X71.751 Y61.746 E157.40331
G0 F9000 X72.037 Y62.032
G1 F1800 X72.903 Y61.363 E157.43971
G1 X73.954 Y60.913 E157.47773
G1 X74.919 Y60.787 E157.5101
G1 X144.873 Y60.775 E159.83678
G1 X146.042 Y60.913 E159.87593
G1 X147.097 Y61.363 E159.91408
G1 X147.964 Y62.033 E159.95052
G1 X148.639 Y62.907 E159.98725
G1 X149.087 Y63.958 E160.02525
G1 X149.225 Y65.124 E160.0643
G1 X149.199 Y155.245 E163.06174
G1 X149.081 Y156.06 E163.08913
G1 X148.639 Y157.093 E163.1265
G1 X147.963 Y157.968 E163.16328
G1 X147.097 Y158.637 E163.19967
G1 X146.042 Y159.087 E163.23782
G1 X144.873 Y159.225 E163.27697
G1 X74.756 Y159.199 E165.60907
G1 X73.936 Y159.08 E165.63663
G1 X72.908 Y158.64 E165.67382
G1 X72.034 Y157.965 E165.71055
G1 X71.361 Y157.093 E165.74719
G1 X70.913 Y156.042 E165.78519
G1 X70.775 Y154.876 E165.82424
G1 X70.801 Y64.755 E168.82168
G1 X70.919 Y63.94 E168.84907
G1 X71.361 Y62.907 E168.88644
G1 X72.037 Y62.032 E168.92321
G0 F9000 X72.322 Y62.317
G1 F1800 X73.107 Y61.711 E168.9562
G1 X74.06 Y61.303 E168.99068
G1 X74.971 Y61.184 E169.02124
G1 X144.873 Y61.175 E171.34619
G1 X145.937 Y61.303 E171.38183
G1 X146.893 Y61.711 E171.4164
G1 X147.679 Y62.318 E171.44943
G1 X148.291 Y63.111 E171.48275
G1 X148.697 Y64.063 E171.51717
G1 X148.825 Y65.124 E171.55272
G1 X148.803 Y155.187 E174.54822
G1 X148.692 Y155.951 E174.5739
G1 X148.291 Y156.889 E174.60783
G1 X147.678 Y157.683 E174.64119
G1 X146.893 Y158.289 E174.67418
G1 X145.937 Y158.697 E174.70875
G1 X144.873 Y158.825 E174.74439
G1 X74.814 Y158.803 E177.07456
G1 X74.045 Y158.691 E177.10041
G1 X73.112 Y158.292 E177.13416
G1 X72.319 Y157.68 E177.16748
G1 X71.709 Y156.889 E177.2007
G1 X71.303 Y155.937 E177.23512
G1 X71.175 Y154.876 E177.27067
G1 X71.197 Y64.813 E180.26618
G1 X71.308 Y64.049 E180.29185
G1 X71.709 Y63.111 E180.32578
G1 X72.322 Y62.317 E180.35915
G0 F9000 X72.605 Y62.605
G1 F1800 X73.313 Y62.058 E180.3889
G1 X74.166 Y61.693 E180.41976
G1 X75.023 Y61.581 E180.44851
G1 X144.873 Y61.575 E182.77173
G1 X145.832 Y61.693 E182.80387
G1 X146.687 Y62.058 E182.83479
G1 X147.395 Y62.605 E182.86455
G1 X147.943 Y63.315 E182.89438
G1 X148.307 Y64.168 E182.92522
G1 X148.425 Y65.124 E182.95726
G1 X148.407 Y155.129 E185.95084
G1 X148.303 Y155.842 E185.9748
G1 X147.943 Y156.686 E186.00532
G1 X147.395 Y157.395 E186.03513
G1 X146.687 Y157.942 E186.06488
G1 X145.832 Y158.307 E186.0958
G1 X144.873 Y158.425 E186.12794
G1 X74.871 Y158.407 E188.45622
G1 X74.154 Y158.303 E188.48031
G1 X73.315 Y157.944 E188.51067
G1 X72.605 Y157.395 E188.54052
G1 X72.057 Y156.685 E188.57035
G1 X71.693 Y155.832 E188.60119
G1 X71.575 Y154.876 E188.63323
G1 X71.593 Y64.871 E191.62681
G1 X71.697 Y64.158 E191.65078
G1 X72.057 Y63.314 E191.6813
G1 X72.605 Y62.605 E191.7111
G0 F9000 X72.89 Y62.89
G1 F1800 X73.517 Y62.406 E191.73744
G1 X74.272 Y62.083 E191.76476
G1 X75.075 Y61.978 E191.79169
G1 X144.873 Y61.975 E194.11318
G1 X145.727 Y62.083 E194.14181
G1 X146.483 Y62.406 E194.16916
G1 X147.11 Y62.89 E194.1955
G1 X147.595 Y63.519 E194.22192
G1 X147.917 Y64.273 E194.24919
G1 X148.025 Y65.124 E194.27772
G1 X148.011 Y155.072 E197.2694
G1 X147.915 Y155.733 E197.29162
G1 X147.595 Y156.482 E197.31871
G1 X147.11 Y157.11 E197.3451
G1 X146.483 Y157.594 E197.37144
G1 X145.727 Y157.917 E197.39879
G1 X144.873 Y158.025 E197.42742
G1 X74.928 Y158.011 E199.7538
G1 X74.265 Y157.915 E199.77608
G1 X73.518 Y157.595 E199.80311
G1 X72.89 Y157.11 E199.8295
G1 X72.405 Y156.481 E199.85592
G1 X72.083 Y155.727 E199.88319
G1 X71.975 Y154.876 E199.91172
G1 X71.989 Y64.928 E202.9034
G1 X72.085 Y64.267 E202.92562
G1 X72.405 Y63.518 E202.95271
G1 X72.89 Y62.89 E202.9791
G0 F9000 X73.175 Y63.175
G1 F1800 X73.721 Y62.754 E203.00203
G1 X74.378 Y62.473 E203.0258
G1 X75.127 Y62.375 E203.05092
G1 X144.873 Y62.375 E205.37068
G1 X145.622 Y62.473 E205.39581
