;FLAVOR:Marlin
;TIME:2726
;Filament used: 5.92673m
;Layer height: 0.2
;MINX:24.144
;MINY:84.56
;MINZ:0.2
;MAXX:195.854
;MAXY:135.429
;MAXZ:15.2
;TARGET_MACHINE.NAME:Creality Ender-3 V3 SE
;Generated with Cura_SteamEngine 5.8.1
M82 ;absolute extrusion mode
M220 S100 ;Reset Feedrate
M221 S100 ;Reset Flowrate

G28 ;Home

M420 S1; Use saved mesh leveling data

G92 E0 ;Reset Extruder
G1 Z2.0 F3000 ;Move Z Axis up
G1 X-3 Y20 Z0.28 F5000.0 ;Move to start position
M190 S60 ; Set bed temperature and wait
M109 S200.0 ; Set hotend temperature and wait
G1 X-3 Y100.0 Z0.28 F1500.0 E15 ;Draw the first line
G1 X-2 Y100.0 Z0.28 F5000.0 ;Move to side a little
G1 X-2 Y20 Z0.28 F1500.0 E30 ;Draw the second line
G92 E0 ;Reset Extruder
G1 E-1.0000 F1800 ;Retract a bit
G1 Z2.0 F3000 ;Move Z Axis up
G1 E0.0000 F1800 

G92 E0
G92 E0
G1 F2400 E-0.8
;LAYER_COUNT:75
;LAYER:0
M107
G1 F300 Z0.4
G0 F9000 X35.144 Y95.964 Z0.4
;TYPE:SKIRT
G1 F300 Z0.2
G1 F2400 E0
G1 F1800 X40.867 Y93.822 E0.20324
G1 X46.835 Y92.206 E0.40889
G1 X52.843 Y90.919 E0.61325
G1 X58.374 Y89.941 E0.80006
G1 X63.555 Y89.138 E0.97444
G1 X73.629 Y87.759 E1.31263
G1 X84.471 Y86.381 E1.67614
G1 X89.671 Y85.735 E1.85042
G1 X94.133 Y85.193 E1.99992
G1 X97.447 Y84.841 E2.11076
G1 X98.758 Y84.72 E2.15455
G1 X99.902 Y84.65 E2.19267
G1 X106.688 Y84.561 E2.41839
G1 X113.423 Y84.56 E2.6424
G1 X120.599 Y84.669 E2.8811
G1 X122.629 Y84.835 E2.94885
G1 X125.958 Y85.212 E3.06028
G1 X130.372 Y85.737 E3.20812
G1 X135.583 Y86.383 E3.38277
G1 X146.485 Y87.783 E3.74835
G1 X156.59 Y89.158 E4.08754
G1 X161.778 Y89.954 E4.26211
G1 X167.462 Y90.982 E4.45423
G1 X173.617 Y92.309 E4.66365
G1 X179.17 Y93.828 E4.85513
G1 X185.053 Y96.051 E5.0643
G1 X188.142 Y97.689 E5.18059
G1 X190.438 Y99.319 E5.27424
G1 X192.511 Y101.252 E5.36852
G1 X194.336 Y103.888 E5.47515
G1 X195.465 Y106.792 E5.57878
G1 X195.854 Y109.884 E5.68243
G1 X195.465 Y113.118 E5.79077
G1 X194.294 Y116.084 E5.89683
G1 X192.48 Y118.68 E6.00217
G1 X189.957 Y120.967 E6.11543
G1 X187.831 Y122.409 E6.20087
G1 X185.363 Y123.711 E6.29368
G1 X179.123 Y126.08 E6.51567
G1 X173.158 Y127.695 E6.72121
G1 X167.156 Y128.981 E6.92537
G1 X161.621 Y129.961 E7.11233
G1 X156.412 Y130.766 E7.28764
G1 X146.368 Y132.141 E7.62482
G1 X135.511 Y133.521 E7.98883
G1 X130.325 Y134.165 E8.16264
G1 X125.859 Y134.708 E8.31227
G1 X122.554 Y135.059 E8.42282
G1 X121.26 Y135.18 E8.46604
G1 X120.198 Y135.25 E8.50144
G1 X113.346 Y135.421 E8.72941
G1 X106.475 Y135.429 E8.95794
G1 X99.402 Y135.231 E9.19328
G1 X97.343 Y135.062 E9.262
G1 X94.011 Y134.686 E9.37352
G1 X89.597 Y134.158 E9.52138
G1 X84.369 Y133.512 E9.69659
G1 X73.494 Y132.114 E10.06127
G1 X63.413 Y130.742 E10.39965
G1 X58.22 Y129.947 E10.57438
G1 X52.519 Y128.913 E10.76709
G1 X46.399 Y127.595 E10.97531
G1 X40.811 Y126.066 E11.168
G1 X35.07 Y123.9 E11.37209
G1 X31.824 Y122.188 E11.49415
G1 X29.433 Y120.476 E11.59195
G1 X27.511 Y118.673 E11.67961
G1 X25.632 Y115.95 E11.78964
G1 X24.524 Y113.059 E11.89262
G1 X24.144 Y109.847 E12.00019
G1 X24.535 Y106.8 E12.10237
G1 X25.695 Y103.853 E12.20771
G1 X27.483 Y101.261 E12.31244
G1 X29.937 Y99.015 E12.42308
G1 X32.056 Y97.559 E12.5086
G1 X35.144 Y95.964 E12.62419
G0 F9000 X35.284 Y96.339
G1 F1800 X40.972 Y94.208 E12.82622
G1 X46.919 Y92.597 E13.03115
G1 X52.913 Y91.313 E13.23503
G1 X58.435 Y90.336 E13.42155
G1 X63.609 Y89.534 E13.59569
G1 X73.679 Y88.156 E13.93374
G1 X84.52 Y86.778 E14.29721
G1 X89.719 Y86.132 E14.47146
G1 X94.175 Y85.591 E14.62076
G1 X97.484 Y85.239 E14.73144
G1 X98.783 Y85.119 E14.77483
G1 X99.907 Y85.05 E14.81228
G1 X106.688 Y84.961 E15.03784
G1 X113.417 Y84.96 E15.26164
G1 X120.566 Y85.068 E15.49945
G1 X122.596 Y85.234 E15.56719
G1 X125.911 Y85.609 E15.67815
G1 X130.323 Y86.134 E15.82593
G1 X135.532 Y86.78 E16.00051
G1 X146.431 Y88.179 E16.36599
G1 X156.529 Y89.553 E16.70494
G1 X161.707 Y90.348 E16.87918
G1 X167.378 Y91.373 E17.07086
G1 X173.511 Y92.695 E17.27953
G1 X179.064 Y94.214 E17.471
G1 X184.912 Y96.425 E17.67895
G1 X187.911 Y98.015 E17.79185
G1 X190.165 Y99.612 E17.88372
G1 X192.207 Y101.516 E17.97658
G1 X193.98 Y104.077 E18.08018
G1 X195.074 Y106.891 E18.1806
G1 X195.451 Y109.886 E18.281
G1 X195.074 Y113.019 E18.38596
G1 X193.939 Y115.893 E18.48873
G1 X192.178 Y118.414 E18.59101
G1 X189.688 Y120.671 E18.70279
G1 X187.644 Y122.055 E18.78489
G1 X185.176 Y123.357 E18.8777
G1 X179.018 Y125.694 E19.09677
G1 X173.074 Y127.304 E19.30159
G1 X167.086 Y128.587 E19.50527
G1 X161.56 Y129.566 E19.69193
G1 X156.358 Y130.37 E19.867
G1 X146.318 Y131.744 E20.20405
G1 X135.462 Y133.124 E20.56803
G1 X130.277 Y133.768 E20.74181
G1 X125.817 Y134.31 E20.89124
G1 X122.517 Y134.661 E21.00161
G1 X121.234 Y134.781 E21.04447
G1 X120.188 Y134.85 E21.07934
G1 X113.346 Y135.021 E21.30698
G1 X106.486 Y135.029 E21.53514
G1 X99.435 Y134.832 E21.76975
G1 X97.376 Y134.663 E21.83846
G1 X94.059 Y134.289 E21.94948
G1 X89.646 Y133.761 E22.09731
G1 X84.42 Y133.115 E22.27245
G1 X73.548 Y131.718 E22.63703
G1 X63.474 Y130.347 E22.97518
G1 X58.291 Y129.553 E23.14958
G1 X52.603 Y128.522 E23.34184
G1 X46.505 Y127.209 E23.54931
G1 X40.917 Y125.68 E23.742
G1 X35.257 Y123.546 E23.94319
G1 X32.011 Y121.834 E24.06525
G1 X29.707 Y120.184 E24.1595
G1 X27.814 Y118.408 E24.24584
G1 X25.99 Y115.765 E24.35264
G1 X24.915 Y112.96 E24.45256
G1 X24.547 Y109.851 E24.55668
G1 X24.926 Y106.899 E24.65567
G1 X26.051 Y104.041 E24.75783
G1 X27.786 Y101.526 E24.85945
G1 X30.164 Y99.345 E24.96677
G1 X32.283 Y97.889 E25.05229
G1 X35.284 Y96.339 E25.16463
G0 F9000 X35.424 Y96.714
G1 F1800 X41.077 Y94.594 E25.36543
G1 X47.003 Y92.988 E25.56964
G1 X52.983 Y91.707 E25.77305
G1 X58.496 Y90.731 E25.95926
G1 X63.663 Y89.93 E26.13317
G1 X73.729 Y88.553 E26.47109
G1 X84.569 Y87.175 E26.83453
G1 X89.767 Y86.529 E27.00874
G1 X94.217 Y85.989 E27.15784
G1 X97.521 Y85.637 E27.26835
G1 X98.808 Y85.518 E27.31134
G1 X99.912 Y85.45 E27.34813
G1 X106.688 Y85.361 E27.57352
G1 X113.411 Y85.36 E27.79713
G1 X120.533 Y85.467 E28.03403
G1 X122.563 Y85.633 E28.10177
G1 X125.864 Y86.006 E28.21227
G1 X130.274 Y86.531 E28.35998
G1 X135.481 Y87.177 E28.53449
G1 X146.377 Y88.575 E28.89986
G1 X156.468 Y89.948 E29.23859
G1 X161.636 Y90.742 E29.41249
G1 X167.294 Y91.764 E29.60372
G1 X173.405 Y93.081 E29.81164
G1 X178.958 Y94.6 E30.00312
G1 X184.77 Y96.799 E30.2098
G1 X187.68 Y98.342 E30.31935
G1 X189.892 Y99.905 E30.40944
G1 X191.903 Y101.78 E30.50089
G1 X193.624 Y104.266 E30.60145
G1 X194.683 Y106.99 E30.69866
G1 X195.048 Y109.888 E30.79581
G1 X194.683 Y112.92 E30.89738
G1 X193.584 Y115.702 E30.99687
G1 X191.876 Y118.148 E31.09609
G1 X189.463 Y120.34 E31.20452
G1 X187.457 Y121.701 E31.28515
G1 X184.989 Y123.003 E31.37796
G1 X178.913 Y125.308 E31.5941
G1 X172.99 Y126.913 E31.7982
G1 X167.016 Y128.193 E32.00141
G1 X161.499 Y129.171 E32.18776
G1 X156.304 Y129.974 E32.3626
G1 X146.268 Y131.347 E32.69951
G1 X135.413 Y132.727 E33.06345
G1 X130.229 Y133.371 E33.2372
G1 X125.775 Y133.912 E33.38643
G1 X122.48 Y134.263 E33.49664
G1 X121.208 Y134.382 E33.53913
G1 X120.178 Y134.45 E33.57347
G1 X113.346 Y134.621 E33.80077
G1 X106.497 Y134.629 E34.02857
G1 X99.468 Y134.433 E34.26245
G1 X97.409 Y134.264 E34.33116
G1 X94.107 Y133.892 E34.44168
G1 X89.695 Y133.364 E34.58947
G1 X84.471 Y132.718 E34.76454
G1 X73.602 Y131.322 E35.12902
G1 X63.535 Y129.952 E35.46693
G1 X58.362 Y129.159 E35.641
G1 X52.687 Y128.131 E35.83282
G1 X46.611 Y126.823 E36.03954
G1 X41.023 Y125.294 E36.23223
G1 X35.444 Y123.192 E36.43052
G1 X32.198 Y121.48 E36.55258
G1 X29.981 Y119.892 E36.64328
G1 X28.117 Y118.143 E36.7283
G1 X26.348 Y115.58 E36.83188
G1 X25.306 Y112.861 E36.92872
G1 X24.95 Y109.855 E37.0294
G1 X25.317 Y106.998 E37.12521
G1 X26.407 Y104.229 E37.22418
G1 X28.089 Y101.791 E37.3227
G1 X30.391 Y99.675 E37.42669
G1 X32.51 Y98.219 E37.51221
G1 X35.424 Y96.714 E37.62129
G0 F9000 X35.565 Y97.088
G1 F1800 X41.182 Y94.98 E37.82083
G1 X47.087 Y93.379 E38.02433
G1 X53.053 Y92.101 E38.22726
G1 X58.557 Y91.126 E38.41317
G1 X63.717 Y90.326 E38.58684
G1 X73.779 Y88.95 E38.92462
G1 X84.618 Y87.572 E39.28803
G1 X89.815 Y86.926 E39.46221
G1 X94.259 Y86.387 E39.61111
G1 X97.558 Y86.035 E39.72145
G1 X98.833 Y85.917 E39.76404
G1 X99.917 Y85.85 E39.80016
G1 X106.688 Y85.761 E40.02539
G1 X113.405 Y85.76 E40.2488
G1 X120.5 Y85.866 E40.4848
G1 X122.53 Y86.032 E40.55255
G1 X125.817 Y86.403 E40.66257
G1 X130.225 Y86.928 E40.81021
G1 X135.43 Y87.574 E40.98466
G1 X146.323 Y88.971 E41.34993
G1 X156.407 Y90.343 E41.68842
G1 X161.565 Y91.136 E41.86199
G1 X167.21 Y92.155 E42.05278
G1 X173.299 Y93.467 E42.25994
G1 X178.852 Y94.986 E42.45142
G1 X184.628 Y97.173 E42.65684
G1 X187.45 Y98.669 E42.76308
G1 X189.619 Y100.198 E42.85134
G1 X191.599 Y102.044 E42.94138
G1 X193.268 Y104.455 E43.03891
G1 X194.292 Y107.089 E43.1329
G1 X194.645 Y109.89 E43.2268
G1 X194.292 Y112.821 E43.32499
G1 X193.229 Y115.511 E43.42119
G1 X191.574 Y117.882 E43.51736
G1 X189.238 Y120.009 E43.62244
G1 X187.27 Y121.347 E43.70159
G1 X184.802 Y122.649 E43.7944
G1 X178.808 Y124.922 E44.00762
G1 X172.906 Y126.522 E44.211
G1 X166.946 Y127.799 E44.41373
G1 X161.438 Y128.776 E44.59979
G1 X156.25 Y129.578 E44.77439
G1 X146.218 Y130.95 E45.11116
G1 X135.364 Y132.33 E45.47508
G1 X130.181 Y132.974 E45.64879
G1 X125.733 Y133.514 E45.79782
G1 X122.443 Y133.865 E45.90786
G1 X121.182 Y133.983 E45.94999
G1 X120.168 Y134.05 E45.98379
G1 X113.346 Y134.221 E46.21076
G1 X106.508 Y134.229 E46.43819
G1 X99.501 Y134.034 E46.67133
G1 X97.442 Y133.865 E46.74005
G1 X94.155 Y133.495 E46.85006
G1 X89.744 Y132.967 E46.99782
G1 X84.522 Y132.321 E47.17283
G1 X73.656 Y130.926 E47.5372
G1 X63.596 Y129.557 E47.87488
G1 X58.433 Y128.765 E48.04861
G1 X52.771 Y127.74 E48.23999
G1 X46.717 Y126.437 E48.44596
G1 X41.129 Y124.908 E48.63865
G1 X35.631 Y122.838 E48.83405
G1 X32.385 Y121.126 E48.9561
G1 X30.255 Y119.6 E49.04325
G1 X28.42 Y117.878 E49.12695
G1 X26.706 Y115.395 E49.2273
G1 X25.697 Y112.762 E49.32108
G1 X25.353 Y109.859 E49.41831
G1 X25.708 Y107.097 E49.51093
G1 X26.763 Y104.417 E49.60673
G1 X28.392 Y102.055 E49.70216
G1 X30.618 Y100.005 E49.80281
G1 X32.737 Y98.549 E49.88832
G1 X35.565 Y97.088 E49.99419
G0 F9000 X35.706 Y97.462
G1 F1800 X41.287 Y95.366 E50.19248
G1 X47.171 Y93.77 E50.39525
G1 X53.123 Y92.495 E50.59771
G1 X58.618 Y91.521 E50.78332
G1 X63.771 Y90.722 E50.95676
G1 X73.829 Y89.347 E51.2944
G1 X84.667 Y87.969 E51.65778
G1 X89.863 Y87.323 E51.83193
G1 X94.302 Y86.785 E51.98065
G1 X97.595 Y86.433 E52.0908
G1 X98.858 Y86.316 E52.13298
G1 X99.922 Y86.25 E52.16844
G1 X106.688 Y86.161 E52.3935
G1 X113.399 Y86.16 E52.61671
G1 X120.467 Y86.265 E52.85182
G1 X122.497 Y86.431 E52.91956
G1 X125.77 Y86.8 E53.02911
G1 X130.176 Y87.325 E53.17669
G1 X135.379 Y87.971 E53.35107
G1 X146.269 Y89.367 E53.71624
G1 X156.346 Y90.738 E54.05449
G1 X161.494 Y91.53 E54.22773
G1 X167.126 Y92.546 E54.41807
G1 X173.193 Y93.853 E54.62449
G1 X178.746 Y95.372 E54.81597
G1 X184.486 Y97.547 E55.02013
G1 X187.22 Y98.996 E55.12304
G1 X189.346 Y100.491 E55.20949
G1 X191.295 Y102.308 E55.29811
G1 X192.912 Y104.644 E55.39261
G1 X193.901 Y107.188 E55.48339
G1 X194.242 Y109.892 E55.57404
G1 X193.901 Y112.722 E55.66884
G1 X192.874 Y115.32 E55.76176
G1 X191.271 Y117.617 E55.85492
G1 X189.013 Y119.678 E55.9566
G1 X187.083 Y120.993 E56.03428
G1 X184.615 Y122.295 E56.12709
G1 X178.703 Y124.536 E56.33738
G1 X172.822 Y126.131 E56.54004
G1 X166.876 Y127.405 E56.7423
G1 X161.377 Y128.381 E56.92805
G1 X156.196 Y129.182 E57.10242
G1 X146.168 Y130.553 E57.43906
G1 X135.315 Y131.933 E57.80294
G1 X130.133 Y132.577 E57.97662
G1 X125.691 Y133.116 E58.12544
G1 X122.406 Y133.467 E58.23532
G1 X121.156 Y133.584 E58.27708
G1 X120.158 Y133.65 E58.31035
G1 X113.346 Y133.821 E58.53698
G1 X106.519 Y133.829 E58.76405
G1 X99.534 Y133.635 E58.99646
G1 X97.475 Y133.466 E59.06518
G1 X94.203 Y133.098 E59.17469
G1 X89.793 Y132.57 E59.32241
G1 X84.573 Y131.924 E59.49736
G1 X73.71 Y130.53 E59.86162
G1 X63.657 Y129.162 E60.19907
G1 X58.504 Y128.371 E60.37247
G1 X52.855 Y127.349 E60.5634
G1 X46.823 Y126.051 E60.76862
G1 X41.235 Y124.522 E60.96131
G1 X35.817 Y122.484 E61.15384
G1 X32.618 Y120.801 E61.27407
G1 X30.529 Y119.308 E61.35947
G1 X28.723 Y117.613 E61.44185
G1 X27.064 Y115.21 E61.53897
G1 X26.088 Y112.663 E61.62969
G1 X25.756 Y109.863 E61.72347
G1 X26.099 Y107.195 E61.81294
G1 X27.118 Y104.606 E61.90548
G1 X28.695 Y102.319 E61.99788
G1 X30.845 Y100.335 E62.09518
G1 X32.964 Y98.879 E62.18069
G1 X35.706 Y97.462 E62.28335
G0 F9000 X35.847 Y97.836
G1 F1800 X41.392 Y95.752 E62.48037
G1 X47.255 Y94.161 E62.68243
G1 X53.193 Y92.889 E62.88441
G1 X58.679 Y91.916 E63.06972
G1 X63.825 Y91.118 E63.24292
G1 X73.879 Y89.744 E63.58043
G1 X84.716 Y88.366 E63.94377
G1 X89.911 Y87.72 E64.11789
G1 X94.345 Y87.183 E64.26644
G1 X97.632 Y86.831 E64.37639
G1 X98.883 Y86.715 E64.41818
G1 X99.927 Y86.65 E64.45297
G1 X106.688 Y86.561 E64.67786
G1 X113.393 Y86.56 E64.90087
G1 X120.434 Y86.664 E65.13508
G1 X122.464 Y86.83 E65.20282
G1 X125.723 Y87.197 E65.3119
G1 X130.127 Y87.722 E65.45942
G1 X135.328 Y88.368 E65.63373
G1 X146.215 Y89.763 E65.9988
G1 X156.285 Y91.133 E66.33681
G1 X161.423 Y91.924 E66.50972
G1 X167.042 Y92.937 E66.69962
G1 X173.087 Y94.239 E66.90528
G1 X178.64 Y95.758 E67.09676
G1 X184.344 Y97.921 E67.29966
G1 X186.99 Y99.324 E67.39927
G1 X189.073 Y100.784 E67.48388
G1 X190.991 Y102.572 E67.57109
G1 X192.556 Y104.833 E67.66255
G1 X193.51 Y107.287 E67.75012
G1 X193.839 Y109.894 E67.83752
G1 X193.51 Y112.623 E67.92894
G1 X192.519 Y115.129 E68.01857
G1 X190.968 Y117.352 E68.10873
G1 X188.787 Y119.348 E68.20706
G1 X186.896 Y120.639 E68.28322
G1 X184.428 Y121.941 E68.37602
G1 X178.598 Y124.15 E68.58338
G1 X172.738 Y125.74 E68.78533
G1 X166.806 Y127.011 E68.98711
G1 X161.316 Y127.986 E69.17257
G1 X156.142 Y128.786 E69.3467
G1 X146.118 Y130.156 E69.6832
G1 X135.266 Y131.536 E70.04704
G1 X130.085 Y132.18 E70.22069
G1 X125.648 Y132.718 E70.36935
G1 X122.369 Y133.069 E70.47903
G1 X121.13 Y133.185 E70.52042
G1 X120.148 Y133.25 E70.55315
G1 X113.346 Y133.421 E70.77946
G1 X106.53 Y133.429 E71.00616
G1 X99.567 Y133.236 E71.23784
G1 X97.52 Y133.068 E71.30615
G1 X94.251 Y132.701 E71.41556
G1 X89.842 Y132.173 E71.56325
G1 X84.624 Y131.527 E71.73813
G1 X73.764 Y130.134 E72.1023
G1 X63.718 Y128.767 E72.43951
G1 X58.575 Y127.977 E72.61257
G1 X52.939 Y126.958 E72.80306
G1 X46.929 Y125.665 E73.00753
G1 X41.341 Y124.136 E73.20022
G1 X36.003 Y122.13 E73.38988
G1 X32.85 Y120.475 E73.50832
G1 X30.803 Y119.016 E73.59193
G1 X29.026 Y117.348 E73.67299
G1 X27.422 Y115.025 E73.76688
G1 X26.479 Y112.564 E73.85454
G1 X26.159 Y109.867 E73.94487
G1 X26.49 Y107.294 E74.03116
G1 X27.474 Y104.794 E74.12051
G1 X28.997 Y102.586 E74.20973
G1 X31.072 Y100.665 E74.30378
G1 X33.191 Y99.209 E74.38929
G1 X35.847 Y97.836 E74.48873
G0 F9000 X35.988 Y98.21
G1 F1800 X41.497 Y96.138 E74.6845
G1 X47.339 Y94.552 E74.88584
G1 X53.263 Y93.283 E75.08734
G1 X58.74 Y92.311 E75.27235
G1 X63.879 Y91.514 E75.44532
G1 X73.929 Y90.141 E75.78269
G1 X84.765 Y88.763 E76.146
G1 X89.959 Y88.117 E76.32008
G1 X94.388 Y87.581 E76.46846
G1 X97.669 Y87.229 E76.57822
G1 X98.908 Y87.114 E76.6196
G1 X99.932 Y87.05 E76.65373
G1 X106.688 Y86.961 E76.87845
G1 X113.387 Y86.96 E77.10126
G1 X120.401 Y87.063 E77.33457
G1 X122.431 Y87.229 E77.40232
G1 X125.676 Y87.594 E77.51093
G1 X130.078 Y88.119 E77.65838
G1 X135.277 Y88.765 E77.83263
G1 X146.161 Y90.159 E78.19759
G1 X156.224 Y91.528 E78.53537
G1 X161.352 Y92.318 E78.70794
G1 X166.958 Y93.328 E78.89739
G1 X172.981 Y94.625 E79.10231
G1 X178.534 Y96.144 E79.29379
G1 X184.202 Y98.295 E79.49543
G1 X186.76 Y99.652 E79.59174
G1 X188.843 Y101.112 E79.67634
G1 X190.685 Y102.833 E79.76019
G1 X192.2 Y105.022 E79.84873
G1 X193.119 Y107.386 E79.93309
G1 X193.436 Y109.896 E80.01724
G1 X193.119 Y112.524 E80.10528
G1 X192.164 Y114.938 E80.19162
G1 X190.665 Y117.087 E80.27877
G1 X188.561 Y119.018 E80.37375
G1 X186.709 Y120.285 E80.44839
G1 X184.241 Y121.587 E80.54119
G1 X178.493 Y123.764 E80.74563
G1 X172.654 Y125.349 E80.94686
G1 X166.736 Y126.617 E81.14816
G1 X161.255 Y127.591 E81.33332
G1 X156.088 Y128.39 E81.50721
G1 X146.068 Y129.759 E81.84358
